app/public/dtpr-icons/org.svg

<svg width="36" height="36" viewBox="0 0 36 36" fill="none" xmlns="http://www.w3.org/2000/svg">
<path d="M31.8564 8.8453L19 1.42265C18.3812 1.06538 17.6188 1.06538 17 1.42265L4.14359 8.8453C3.52479 9.20257 3.14359 9.86282 3.14359 10.5774V25.4226C3.14359 26.1372 3.52479 26.7974 4.14359 27.1547L17 34.5774C17.6188 34.9346 18.3812 34.9346 19 34.5774L31.8564 27.1547C32.4752 26.7974 32.8564 26.1372 32.8564 25.4226V10.5774C32.8564 9.86282 32.4752 9.20256 31.8564 8.8453Z" stroke="black" stroke-width="2"/>
<path fill-rule="evenodd" clip-rule="evenodd" d="M18 13.8333H26.3334V25.5H9.66669V10.5H18V13.8333ZM11.3334 23.8333H13V22.1667H11.3334V23.8333ZM13 20.5H11.3334V18.8333H13V20.5ZM11.3334 17.1667H13V15.5H11.3334V17.1667ZM13 13.8333H11.3334V12.1667H13V13.8333ZM14.6667 23.8333H16.3334V22.1667H14.6667V23.8333ZM16.3334 20.5H14.6667V18.8333H16.3334V20.5ZM14.6667 17.1667H16.3334V15.5H14.6667V17.1667ZM16.3334 13.8333H14.6667V12.1667H16.3334V13.8333ZM18 23.8333H24.6667V15.5H18V17.1667H19.6667V18.8333H18V20.5H19.6667V22.1667H18V23.8333ZM23 17.1667H21.3334V18.8333H23V17.1667ZM21.3334 20.5H23V22.1667H21.3334V20.5Z" fill="black"/>
</svg>

<svg xmlns="http://www.w3.org/2000/svg" width="36" height="36" fill="none"><path stroke="#000" stroke-width="2" d="M31.856 8.845 19 1.423a2 2 0 0 0-2 0L4.144 8.845a2 2 0 0 0-1 1.732v14.846a2 2 0 0 0 1 1.732L17 34.577a2 2 0 0 0 2 0l12.856-7.422a2 2 0 0 0 1-1.732V10.577a2 2 0 0 0-1-1.732Z"/><path fill="#000" fill-rule="evenodd" d="M18 13.833h8.333V25.5H9.667v-15H18zm-6.667 10H13v-1.666h-1.667zM13 20.5h-1.667v-1.667H13zm-1.667-3.333H13V15.5h-1.667zM13 13.833h-1.667v-1.666H13zm1.667 10h1.666v-1.666h-1.666zm1.666-3.333h-1.666v-1.667h1.666zm-1.666-3.333h1.666V15.5h-1.666zm1.666-3.334h-1.666v-1.666h1.666zm1.667 10h6.667V15.5H18v1.667h1.667v1.666H18V20.5h1.667v1.667H18zm5-6.666h-1.667v1.666H23zM21.333 20.5H23v1.667h-1.667z" clip-rule="evenodd"/></svg>
